images/src/ic_user.svg

<svg
 xmlns="http://www.w3.org/2000/svg"
 xmlns:xlink="http://www.w3.org/1999/xlink"
 width="23px" height="27px">
<path fill-rule="evenodd"  fill="currentColor"
 d="M21.377,24.846 L21.377,24.570 C21.377,22.729 19.908,21.232 18.104,21.232 C18.079,21.232 17.118,21.232 16.143,20.810 L12.547,26.032 C12.273,26.429 11.826,26.666 11.350,26.666 C11.350,26.666 11.350,26.666 11.350,26.666 C10.874,26.666 10.427,26.429 10.154,26.032 L6.557,20.809 C5.701,21.205 4.619,21.232 4.594,21.232 C2.790,21.232 1.321,22.729 1.321,24.570 L1.321,24.846 C0.882,24.496 0.459,24.127 0.057,23.734 C0.437,21.587 2.241,19.940 4.436,19.864 C4.460,19.862 7.898,19.966 8.411,16.201 C6.742,15.014 5.517,12.839 5.183,10.215 C5.117,10.151 5.062,10.073 5.025,9.981 C4.889,9.642 4.774,9.287 4.684,8.926 C4.257,7.216 4.388,5.447 5.053,3.944 C5.739,2.396 6.907,1.310 8.343,0.888 C8.643,0.799 8.956,0.742 9.276,0.717 C10.113,0.293 11.000,0.078 11.914,0.078 C15.410,0.078 18.253,3.205 18.253,7.049 C18.253,8.051 18.064,9.017 17.691,9.923 C17.652,10.019 17.593,10.100 17.522,10.165 C17.316,11.847 16.738,13.401 15.840,14.640 C15.379,15.277 14.855,15.802 14.287,16.206 C14.798,19.965 18.238,19.861 18.262,19.864 C20.457,19.940 22.261,21.587 22.641,23.734 C22.239,24.127 21.816,24.496 21.377,24.846 ZM16.907,7.049 C16.907,3.962 14.668,1.450 11.914,1.450 C11.172,1.450 10.451,1.635 9.770,2.000 C9.682,2.047 9.586,2.074 9.487,2.078 C9.221,2.091 8.962,2.133 8.716,2.206 C6.515,2.854 5.294,5.672 5.971,8.511 C6.698,7.733 7.228,6.774 7.493,5.733 C7.584,5.380 7.884,5.127 8.241,5.103 C8.597,5.081 8.924,5.291 9.057,5.628 C9.142,5.846 9.286,6.035 9.471,6.177 C9.688,6.342 9.947,6.429 10.220,6.429 L14.806,6.429 C15.625,6.429 16.367,6.773 16.901,7.326 C16.905,7.234 16.907,7.142 16.907,7.049 ZM16.262,8.781 C16.262,8.776 16.263,8.771 16.263,8.766 C16.014,8.198 15.455,7.801 14.806,7.801 L10.220,7.801 C9.655,7.801 9.118,7.620 8.666,7.276 C8.593,7.221 8.524,7.162 8.458,7.099 C8.021,8.165 7.349,9.125 6.500,9.896 C6.682,11.509 7.256,12.981 8.131,14.072 C9.028,15.189 10.171,15.805 11.350,15.804 C14.059,15.804 16.262,12.653 16.262,8.781 ZM13.022,16.878 C12.485,17.075 11.924,17.177 11.350,17.177 C10.771,17.177 10.210,17.071 9.677,16.874 C9.431,18.184 8.718,19.326 7.721,20.112 L11.255,25.244 C11.278,25.277 11.310,25.294 11.350,25.294 C11.390,25.294 11.422,25.277 11.445,25.243 L14.978,20.113 C13.982,19.328 13.268,18.187 13.022,16.878 Z"/>
</svg>

<svg xmlns="http://www.w3.org/2000/svg" viewBox="0 0 22.58 26.59"><path d="M21.38,24.85v-.28a3.31,3.31,0,0,0-3.28-3.34,5.5,5.5,0,0,1-2-.42L12.55,26a1.46,1.46,0,0,1-1.2.64h0a1.46,1.46,0,0,1-1.2-.64L6.56,20.81a5.82,5.82,0,0,1-2,.42,3.31,3.31,0,0,0-3.27,3.34v.28A14.83,14.83,0,0,1,.06,23.73a4.66,4.66,0,0,1,4.38-3.87,3.94,3.94,0,0,0,4-3.66,8.63,8.63,0,0,1-3.23-6A.75.75,0,0,1,5,10a7.61,7.61,0,0,1-.35-1.05,7.85,7.85,0,0,1,.37-5,5.31,5.31,0,0,1,3.29-3A4.21,4.21,0,0,1,9.28.72,5.67,5.67,0,0,1,11.91.08c3.5,0,6.34,3.12,6.34,7a7.53,7.53,0,0,1-.56,2.87.61.61,0,0,1-.17.24,9.53,9.53,0,0,1-1.68,4.48,7,7,0,0,1-1.55,1.57,3.94,3.94,0,0,0,4,3.65,4.66,4.66,0,0,1,4.38,3.87A14.83,14.83,0,0,1,21.38,24.85ZM16.91,7.05c0-3.09-2.24-5.6-5-5.6A4.43,4.43,0,0,0,9.77,2a.69.69,0,0,1-.28.08,2.76,2.76,0,0,0-.77.13C6.51,2.85,5.29,5.67,6,8.51A6.33,6.33,0,0,0,7.49,5.73a.84.84,0,0,1,.75-.63.83.83,0,0,1,.82.53,1.31,1.31,0,0,0,.41.55,1.27,1.27,0,0,0,.75.25h4.59a2.86,2.86,0,0,1,2.09.9A2.72,2.72,0,0,0,16.91,7.05Zm-.65,1.73h0a1.6,1.6,0,0,0-1.45-1H10.22a2.54,2.54,0,0,1-1.55-.52L8.46,7.1a7.85,7.85,0,0,1-2,2.8,8.18,8.18,0,0,0,1.63,4.17,4.15,4.15,0,0,0,3.22,1.73C14.06,15.8,16.26,12.65,16.26,8.78ZM13,16.88a4.78,4.78,0,0,1-1.67.3,4.71,4.71,0,0,1-1.67-.31,5.39,5.39,0,0,1-2,3.24l3.54,5.13a.11.11,0,0,0,.18,0L15,20.11A5.36,5.36,0,0,1,13,16.88Z" transform="translate(-0.06 -0.08)" fill-rule="evenodd" fill="currentColor" /></svg>
